assets/server.svg

<?xml version="1.0" encoding="UTF-8"?>
<svg width="18px" height="17px" viewBox="0 0 18 17" version="1.1" xmlns="http://www.w3.org/2000/svg" xmlns:xlink="http://www.w3.org/1999/xlink">
    <!-- Generator: Sketch 42 (36781) - http://www.bohemiancoding.com/sketch -->
    <title>Group</title>
    <desc>Created with Sketch.</desc>
    <defs>
        <linearGradient x1="50%" y1="0%" x2="50%" y2="100%" id="linearGradient-1">
            <stop stop-color="#26E089" offset="0%"></stop>
            <stop stop-color="#26CCE0" offset="100%"></stop>
        </linearGradient>
    </defs>
    <g id="Page-1" stroke="none" stroke-width="1" fill="none" fill-rule="evenodd">
        <g id="Artboard-Copy-5" transform="translate(-255.000000, -50.000000)" fill-rule="nonzero" fill="url(#linearGradient-1)">
            <g id="server" transform="translate(190.000000, 35.000000)">
                <g id="Group-6" transform="translate(53.000000, 0.000000)">
                    <g id="repeat" transform="translate(12.000000, 15.000000)">
                        <g id="Capa_1">
                            <g id="Group">
                                <path d="M0.588461538,8.21666667 C0.779884615,8.21666667 0.934615385,8.05835417 0.934615385,7.8625 C0.934615385,5.71447917 2.64288462,3.96666667 4.74230769,3.96666667 L13.05,3.96666667 L13.05,7.14141667 L17.7923077,3.6125 L13.05,0.0835833333 L13.05,3.25833333 L4.74230769,3.25833333 C2.26107692,3.25833333 0.242307692,5.32383333 0.242307692,7.8625 C0.242307692,8.05835417 0.397038462,8.21666667 0.588461538,8.21666667 Z" id="Shape"></path>
                                <path d="M17.2038462,8.57083333 C17.0124231,8.57083333 16.8576923,8.72914583 16.8576923,8.925 C16.8576923,11.0730208 15.1494231,12.8208333 13.05,12.8208333 L4.74230769,12.8208333 L4.74230769,9.64608333 L0,13.175 L4.74230769,16.7039167 L4.74230769,13.5291667 L13.05,13.5291667 C15.5312308,13.5291667 17.55,11.4636667 17.55,8.925 C17.55,8.72914583 17.3952692,8.57083333 17.2038462,8.57083333 Z" id="Shape"></path>
                            </g>
                        </g>
                    </g>
                </g>
            </g>
        </g>
    </g>
</svg>

<svg id="Layer_1" data-name="Layer 1" xmlns="http://www.w3.org/2000/svg" xmlns:xlink="http://www.w3.org/1999/xlink" viewBox="0 0 18 17"><defs><style>.cls-1{fill:url(#linear-gradient);}.cls-2{fill:url(#linear-gradient-2);}</style><linearGradient id="linear-gradient" x1="-231.48" y1="234.63" x2="-231.48" y2="233.63" gradientTransform="matrix(17.55, 0, 0, -8.13, 4071.54, 1908.35)" gradientUnits="userSpaceOnUse"><stop offset="0" stop-color="#26e089"/><stop offset="1" stop-color="#26cce0"/></linearGradient><linearGradient id="linear-gradient-2" x1="-231.48" y1="234.63" x2="-231.48" y2="233.63" gradientTransform="matrix(17.55, 0, 0, -8.13, 4071.3, 1916.84)" xlink:href="#linear-gradient"/></defs><g id="Group"><path id="Shape" class="cls-1" d="M.59,8.22a.35.35,0,0,0,.35-.35A3.86,3.86,0,0,1,4.74,4h8.31V7.14l4.74-3.53L13.05.08V3.26H4.74a4.56,4.56,0,0,0-4.5,4.6A.35.35,0,0,0,.59,8.22Z"/><path id="Shape-2" data-name="Shape" class="cls-2" d="M17.2,8.57a.35.35,0,0,0-.35.35,3.86,3.86,0,0,1-3.81,3.9H4.74V9.65L0,13.18,4.74,16.7V13.53h8.31a4.56,4.56,0,0,0,4.5-4.6A.35.35,0,0,0,17.2,8.57Z"/></g></svg>
